X: 29281
T: New Plymouth
R: reel
M: 4/4
K: Gdorian
GF|:DGGF G2 Bc|BAGB AFDC|A,FFE ~F2 FG|AccA BGAF|
DGGF G2 Bc|BAGB AFDC|A,F ~F2 FGAc|1 cBBA AGAF:|2 cBBA AGFD||
|:G3 G FD (d2|d)~d3 dcAG|F3~(F F2)FG|Ac ~c2 A ~B2 A|
G3 G FDFG|cd~d2 dcAG|F2 F/F/F FGAc|1 cBBA BGFD:|2 dDcD BDAF||

